X:1331
T:Corrandes
T:Donzelleta agraciada
C:anon.
O:Spain
A:Catalana
Z:Transcribed by Frank Nordberg - http://www.musicaviva.com
F:http://abc.musicaviva.com/tunes/spain/corrandes.abc
M:3/8
L:1/16
Q:1/8=126
K:Aphr
AA|"A"A2^c2cc|"Dm"^c2d2dd|"A"d2^c2A_B|"C"H=c6-|"A"c2 z2 AA|
w:Do-\cce-lle-ta a-gra-cia-da a qui os com-pa-ra-r\'e _ a la
"A"A2^c2cc|"Dm"^c2d2dd|"Gm"=c2c2_BB|"F"HA6-|"A"A2 z2 AA|
w:flor de la pe-re-ra \'o_a las ro-sas del ro-ser _ a la
"Am"A2=c2=Bc|"F"A2A2AA|"Dm"A2=c2_Bc|"Am"HA6-|"A"A2 z2 AA|
w:flor de la pe-re-ra os com-pa-ro pel blan-c\'o _ a les
"A"A2^c2cc|"G"^c2d2dd|"C"d2d2=cB|"A"HA6-|"A"A2 z2|]
w: re-ses del ro-s\'e _ os com-pa-rp pel co-lor.
W:
W:Donzelleta agraciada
W:a qui us comparar\'e
W:A la flor de la perera
W:O a les roses del roser
W:
W:A la flor de la perera
W:us comparo per blancor;
W:a les roses del roser
W:us comparo del color.
W:
W:Si n'hi ha de casadetes
W:D\'eu conservi llur senyor;
W:si n'hi ha d'altres de viudetes
W:D\'eu mantingui llur honor.
W:
W:Si n'hi ha de fadrinetes
W:que ens prenguin per servidor;
W:si el servidor no els agrada
W:que D\'eu els doni millor.
W:
W:Ella est\`a al llit acotxada,
W:jo a la porta mort de fred,
W:amb les mans a la guitarra
W:recerat a la paret.
W:
W:Una vida, dues vides,
W:quantes vides teniu vos
W:Vos teniu la meva vida
W:i la vida de tots dos.
W:
W:
W:  From Musica Viva - http://www.musicaviva.com
W:  the Internet center for free sheet music downloads.
